app/public/dtpr-icons/institution.svg

<svg width="36" height="36" viewBox="0 0 36 36" fill="none" xmlns="http://www.w3.org/2000/svg">
<path d="M31.8564 8.8453L19 1.42265C18.3812 1.06538 17.6188 1.06538 17 1.42265L4.14359 8.8453C3.52479 9.20257 3.14359 9.86282 3.14359 10.5774V25.4226C3.14359 26.1372 3.52479 26.7974 4.14359 27.1547L17 34.5774C17.6188 34.9346 18.3812 34.9346 19 34.5774L31.8564 27.1547C32.4752 26.7974 32.8564 26.1372 32.8564 25.4226V10.5774C32.8564 9.86282 32.4752 9.20256 31.8564 8.8453Z" stroke="black" stroke-width="2"/>
<path d="M13.8334 16.3334H11.3334V22.1667H13.8334V16.3334Z" fill="black"/>
<path d="M19.25 16.3334H16.75V22.1667H19.25V16.3334Z" fill="black"/>
<path d="M26.3334 23.8334H9.66669V26.3334H26.3334V23.8334Z" fill="black"/>
<path d="M24.6667 16.3334H22.1667V22.1667H24.6667V16.3334Z" fill="black"/>
<path d="M18 8.83337L9.66669 13V14.6667H26.3334V13L18 8.83337Z" fill="black"/>
</svg>

<svg xmlns="http://www.w3.org/2000/svg" width="36" height="36" fill="none"><path stroke="#000" stroke-width="2" d="M31.856 8.845 19 1.423a2 2 0 0 0-2 0L4.144 8.845a2 2 0 0 0-1 1.732v14.846a2 2 0 0 0 1 1.732L17 34.577a2 2 0 0 0 2 0l12.856-7.422a2 2 0 0 0 1-1.732V10.577a2 2 0 0 0-1-1.732Z"/><path fill="#000" d="M13.833 16.333h-2.5v5.834h2.5zM19.25 16.333h-2.5v5.834h2.5zM26.333 23.833H9.667v2.5h16.666zM24.667 16.333h-2.5v5.834h2.5zM18 8.833 9.667 13v1.667h16.666V13z"/></svg>
